icons/1_Primary/Gaia Online.svg

<svg width="1024" height="1024" viewBox="0 0 1024 1024" fill="none" xmlns="http://www.w3.org/2000/svg">
<g clip-path="url(#clip0_2_2253)">
<path d="M512 1024C794.77 1024 1024 794.77 1024 512C1024 229.23 794.77 0 512 0C229.23 0 0 229.23 0 512C0 794.77 229.23 1024 512 1024Z" fill="#979797"/>
<path d="M587.74 595.27C587.74 595.27 533.45 602.03 533.45 560.77V499.18C533.45 498.65 533.39 498.11 533.39 497.59V497.42C533.39 484.7 529.39 443.19 479.09 443.17C464.686 443.17 450.872 448.892 440.687 459.077C430.502 469.262 424.78 483.076 424.78 497.48C424.78 511.884 430.502 525.698 440.687 535.883C450.872 546.068 464.686 551.79 479.09 551.79C507.73 551.79 523.34 530.6 526 528.55V560.71C526 581.37 503.62 594.5 475.65 594.5C421.21 594.5 380.34 551.91 380.34 497.5C380.372 471.324 390.786 446.229 409.297 427.722C427.808 409.215 452.904 398.806 479.08 398.78C538.08 398.78 577.74 438.4 577.8 497.41V497.72C577.8 498.26 577.89 498.72 577.89 499.31V574.4C577.88 588.65 587.74 595.27 587.74 595.27ZM849 595.27C849 595.27 839.15 588.65 839.15 574.44V499.3C839.15 498.76 839.15 498.25 839.06 497.71V497.4C839 438.4 799.32 398.77 740.34 398.77C714.165 398.796 689.07 409.205 670.56 427.713C652.051 446.22 641.639 471.315 641.61 497.49C641.61 551.92 682.47 594.49 736.91 594.49C764.91 594.49 787.26 581.36 787.26 560.7V528.55C784.59 530.6 768.99 551.79 740.35 551.79C725.946 551.79 712.132 546.068 701.947 535.883C691.762 525.698 686.04 511.884 686.04 497.48C686.04 483.076 691.762 469.262 701.947 459.077C712.132 448.892 725.946 443.17 740.35 443.17C790.68 443.17 794.64 484.69 794.65 497.42V497.59C794.65 498.12 794.65 498.66 794.73 499.18V560.78C794.73 602 849 595.27 849 595.27ZM610.11 411.71C603.79 411.715 597.73 414.229 593.262 418.699C588.794 423.169 586.283 429.23 586.28 435.55V572.17C586.28 578.493 588.792 584.556 593.263 589.027C597.733 593.498 603.797 596.01 610.12 596.01C616.443 596.01 622.507 593.498 626.977 589.027C631.448 584.556 633.96 578.493 633.96 572.17V435.55C633.957 429.226 631.443 423.162 626.971 418.692C622.499 414.221 616.434 411.71 610.11 411.71ZM610.44 402.31C615.216 402.304 619.883 400.882 623.851 398.224C627.819 395.566 630.91 391.791 632.732 387.376C634.555 382.962 635.028 378.106 634.091 373.423C633.154 368.739 630.85 364.439 627.469 361.066C624.088 357.692 619.783 355.396 615.098 354.469C610.413 353.542 605.558 354.025 601.147 355.857C596.737 357.689 592.968 360.787 590.318 364.76C587.668 368.734 586.256 373.404 586.26 378.18C586.261 381.352 586.888 384.494 588.104 387.424C589.32 390.354 591.102 393.016 593.348 395.257C595.594 397.498 598.259 399.274 601.192 400.485C604.125 401.695 607.267 402.315 610.44 402.31ZM373.32 498V497.81C373.26 438.54 333.39 398.73 274.17 398.73C247.871 398.759 222.657 409.222 204.064 427.822C185.471 446.423 175.019 471.64 175 497.94C175 552.62 215.68 595.4 268.05 595.4C299.4 595.4 321.28 579.66 321.28 563.53V530.11C318.61 532.18 302.93 552.49 274.17 552.49C259.706 552.49 245.835 546.744 235.608 536.517C225.381 526.29 219.635 512.418 219.635 497.955C219.635 483.491 225.381 469.62 235.608 459.393C245.835 449.165 259.706 443.42 274.17 443.42C324.71 443.42 328.7 485.11 328.7 497.88V498C328.7 498.54 328.7 499.07 328.79 499.59V562.47C328.79 588.71 319.15 625.32 251.63 625.32C245.712 625.32 240.036 627.671 235.851 631.856C231.666 636.041 229.315 641.716 229.315 647.635C229.315 653.553 231.666 659.229 235.851 663.414C240.036 667.599 245.712 669.95 251.63 669.95C361.92 669.95 373.37 593.95 373.37 573.75V499.75C373.37 499.2 373.37 498.66 373.29 498.13L373.32 498ZM636.32 640.3C636.32 656.61 624.78 669.5 608.98 669.5C593.18 669.5 581.55 656.61 581.55 640.3C581.55 623.99 593.09 611.18 608.98 611.18C624.87 611.18 636.31 624.12 636.31 640.35L636.32 640.3ZM625.59 640.3C625.59 629.89 618.19 621.3 608.98 621.3C599.77 621.3 592.29 629.93 592.29 640.3C592.29 650.67 599.7 659.42 608.98 659.42C618.26 659.42 625.58 650.82 625.58 640.35L625.59 640.3ZM664.25 611.18C661.557 611.066 658.87 611.514 656.359 612.494C653.848 613.474 651.568 614.965 649.664 616.873C647.76 618.781 646.274 621.063 645.298 623.576C644.323 626.089 643.881 628.777 644 631.47V668.58H654.66V631.24C654.66 625.24 658.28 621.64 664.26 621.64C670.24 621.64 673.92 625.27 673.92 631.24V668.58H684.57V631.47C684.684 628.775 684.236 626.087 683.254 623.575C682.273 621.063 680.78 618.783 678.87 616.88C676.96 614.976 674.674 613.491 672.159 612.518C669.644 611.545 666.954 611.107 664.26 611.23L664.25 611.18ZM704.74 650.7V612.6H694.08V650.91C694.08 661.64 700.21 668.58 711.65 668.58H728.65V658.09H711.74C706.67 658.09 704.73 655.93 704.73 650.74L704.74 650.7ZM735.4 668.54H746V612.54H735.38L735.4 668.54ZM776.62 611.19C773.932 611.077 771.25 611.523 768.743 612.5C766.236 613.477 763.959 614.964 762.057 616.866C760.154 618.769 758.667 621.046 757.69 623.552C756.713 626.059 756.267 628.742 756.38 631.43V668.54H767V631.24C767 625.24 770.62 621.64 776.59 621.64C782.56 621.64 786.26 625.27 786.26 631.24V668.58H796.91V631.47C797.022 628.774 796.573 626.085 795.59 623.572C794.607 621.059 793.112 618.779 791.2 616.875C789.288 614.972 787 613.487 784.484 612.515C781.967 611.543 779.275 611.105 776.58 611.23L776.62 611.19ZM806.87 630.38V650.7C806.87 661.43 813.02 668.52 824.55 668.52H844.3V658.09H824.6C819.54 658.09 817.52 656.09 817.52 650.91V645.49H840.18V635.58H817.51V630.17C817.51 625.01 819.51 623.07 824.59 623.07H844.29V612.6H824.53C813 612.6 806.85 619.7 806.85 630.42L806.87 630.38Z" fill="white"/>
</g>
<defs>
<clipPath id="clip0_2_2253">
<rect width="1024" height="1024" fill="white"/>
</clipPath>
</defs>
</svg>

<svg xmlns="http://www.w3.org/2000/svg" viewBox="0 0 1024 1024">
   <circle cx="512" cy="512" r="512" style="fill:#605270"/>
   <path d="M587.74 595.27s-54.29 6.76-54.29-34.5v-61.59c0-.53-.06-1.07-.06-1.59v-.17c0-12.72-4-54.23-54.3-54.25a54.31 54.31 0 0 0 0 108.62c28.64 0 44.25-21.19 46.91-23.24v32.16c0 20.66-22.38 33.79-50.35 33.79-54.44 0-95.31-42.59-95.31-97a98.84 98.84 0 0 1 98.74-98.72c59 0 98.66 39.62 98.72 98.63v.31c0 .54.09 1 .09 1.59v75.09c-.01 14.25 9.85 20.87 9.85 20.87Zm261.26 0s-9.85-6.62-9.85-20.83V499.3c0-.54 0-1.05-.09-1.59v-.31c-.06-59-39.74-98.63-98.72-98.63a98.83 98.83 0 0 0-98.73 98.72c0 54.43 40.86 97 95.3 97 28 0 50.35-13.13 50.35-33.79v-32.15c-2.67 2.05-18.27 23.24-46.91 23.24a54.31 54.31 0 0 1 0-108.62c50.33 0 54.29 41.52 54.3 54.25v.17c0 .53 0 1.07.08 1.59v61.6c0 41.22 54.27 34.49 54.27 34.49ZM610.11 411.71a23.85 23.85 0 0 0-23.83 23.84v136.62a23.84 23.84 0 0 0 47.68 0V435.55a23.85 23.85 0 0 0-23.85-23.84Zm.33-9.4a24.15 24.15 0 1 0-24.18-24.13 24.14 24.14 0 0 0 24.18 24.13ZM373.32 498v-.19c-.06-59.27-39.93-99.08-99.15-99.08A99.28 99.28 0 0 0 175 497.94c0 54.68 40.68 97.46 93.05 97.46 31.35 0 53.23-15.74 53.23-31.87v-33.42c-2.67 2.07-18.35 22.38-47.11 22.38a54.53 54.53 0 1 1 0-109.07c50.54 0 54.53 41.69 54.53 54.46v.12c0 .54 0 1.07.09 1.59v62.88c0 26.24-9.64 62.85-77.16 62.85a22.31 22.31 0 0 0 0 44.63c110.29 0 121.74-76 121.74-96.2v-74c0-.55 0-1.09-.08-1.62Zm263 142.3c0 16.31-11.54 29.2-27.34 29.2s-27.43-12.89-27.43-29.2 11.54-29.12 27.43-29.12 27.33 12.94 27.33 29.17Zm-10.73 0c0-10.41-7.4-19-16.61-19s-16.69 8.63-16.69 19 7.41 19.12 16.69 19.12 16.6-8.6 16.6-19.07Zm38.66-29.12A19.45 19.45 0 0 0 644 631.47v37.11h10.66v-37.34c0-6 3.62-9.6 9.6-9.6s9.66 3.63 9.66 9.6v37.34h10.65v-37.11a19.44 19.44 0 0 0-20.31-20.24Zm40.49 39.52v-38.1h-10.66v38.31c0 10.73 6.13 17.67 17.57 17.67h17v-10.49h-16.91c-5.07 0-7.01-2.16-7.01-7.35Zm30.66 17.84H746v-56h-10.62Zm41.22-57.35a19.44 19.44 0 0 0-20.24 20.24v37.11H767v-37.3c0-6 3.62-9.6 9.59-9.6s9.67 3.63 9.67 9.6v37.34h10.65v-37.11a19.45 19.45 0 0 0-20.33-20.24Zm30.25 19.19v20.32c0 10.73 6.15 17.82 17.68 17.82h19.75v-10.43h-19.7c-5.06 0-7.08-2-7.08-7.18v-5.42h22.66v-9.91h-22.67v-5.41c0-5.16 2-7.1 7.08-7.1h19.7V612.6h-19.76c-11.53 0-17.68 7.1-17.68 17.82Z" style="fill:#fff"/>
</svg>
